src/shared/assets/images/img-warning.svg

<svg width="88" height="88" viewBox="0 0 88 88" fill="none" xmlns="http://www.w3.org/2000/svg">
<mask id="mask0_315_6604" style="mask-type:alpha" maskUnits="userSpaceOnUse" x="5" y="13" width="62" height="62">
<path d="M66.2132 44.0011C66.2132 60.6879 52.6859 74.2151 35.9992 74.2151C19.3124 74.2151 5.78516 60.6879 5.78516 44.0011C5.78516 27.3144 19.3124 13.7871 35.9992 13.7871C52.6859 13.7871 66.2132 27.3144 66.2132 44.0011Z" fill="#70ACDE"/>
</mask>
<g mask="url(#mask0_315_6604)">
<circle cx="35.925" cy="44.1701" r="34.5324" fill="#FF8F8F"/>
<ellipse cx="30.8819" cy="39.454" rx="2.03618" ry="5.66299" fill="white"/>
<path d="M32.8474 39.8625C32.8474 38.108 32.4547 36.623 31.9248 35.6517C31.6613 35.1687 31.3994 34.8774 31.2012 34.7237C31.0165 34.5805 30.9273 34.5834 30.9185 34.5834C30.9097 34.5834 30.8205 34.5805 30.6357 34.7237C30.4375 34.8774 30.1757 35.1687 29.9121 35.6517C29.3823 36.623 28.9896 38.108 28.9896 39.8625C28.9896 41.617 29.3823 43.102 29.9121 44.0733C30.1757 44.5563 30.4375 44.8476 30.6357 45.0013C30.8205 45.1445 30.9097 45.1416 30.9185 45.1416V47.2347L30.7114 47.2252C28.6549 47.034 27.0062 44.0115 26.9019 40.242L26.8965 39.8625C26.8965 35.7909 28.6972 32.4902 30.9185 32.4902C33.1398 32.4902 34.9405 35.7909 34.9405 39.8625L34.935 40.242C34.8273 44.1373 33.0703 47.2347 30.9185 47.2347V45.1416C30.9273 45.1416 31.0164 45.1445 31.2012 45.0013C31.3995 44.8476 31.6613 44.5563 31.9248 44.0733C32.4547 43.102 32.8474 41.617 32.8474 39.8625Z" fill="#1F1F22"/>
<path d="M27.0632 31.1185C27.0632 32.0658 26.2953 32.8337 25.348 32.8337C24.4007 32.8337 23.6328 32.0658 23.6328 31.1185C23.6328 30.1712 24.4007 29.4033 25.348 29.4033C26.2953 29.4033 27.0632 30.1712 27.0632 31.1185Z" fill="#1F1F22"/>
<path d="M38.5339 31.1185C38.5339 32.0658 37.766 32.8337 36.8187 32.8337C35.8714 32.8337 35.1035 32.0658 35.1035 31.1185C35.1035 30.1712 35.8714 29.4033 36.8187 29.4033C37.766 29.4033 38.5339 30.1712 38.5339 31.1185Z" fill="#1F1F22"/>
</g>
<path d="M80.0227 21.5983L75.0173 21.0682C74.4764 21.011 73.9756 21.1233 73.5904 21.348C72.6427 21.9008 72.8211 23.261 72.7705 24.3571L72.0152 40.7144C71.9646 41.8105 71.8978 43.054 72.7336 43.7649C73.7216 44.6052 75.4008 44.8164 76.5858 44.2534C77.6056 43.769 77.8716 42.5173 78.1093 41.4136L81.4632 25.8448C81.7427 24.5477 82.4892 22.9195 81.4444 22.1015C81.1263 21.8525 80.6636 21.666 80.0227 21.5983Z" fill="#1F1F22"/>
<path d="M77.147 51.6726C77.0352 53.3871 75.5546 54.6864 73.84 54.5745C72.1255 54.4627 70.8263 52.9821 70.9381 51.2675C71.05 49.553 72.5305 48.2538 74.2451 48.3656C75.9596 48.4775 77.2589 49.958 77.147 51.6726Z" fill="#1F1F22"/>
</svg>

<svg xmlns="http://www.w3.org/2000/svg" fill="none" viewBox="0 0 88 88"><mask id="a" width="62" height="62" x="5" y="13" maskUnits="userSpaceOnUse" style="mask-type:alpha"><path fill="#70acde" d="M66.213 44.001c0 16.687-13.527 30.214-30.214 30.214S5.785 60.688 5.785 44.001 19.312 13.787 36 13.787s30.214 13.527 30.214 30.214"/></mask><g mask="url(#a)"><circle cx="35.925" cy="44.17" r="34.532" fill="#ff8f8f"/><ellipse cx="30.882" cy="39.454" fill="#fff" rx="2.036" ry="5.663"/><path fill="#1f1f22" d="M32.847 39.863c0-1.755-.392-3.24-.922-4.211-.264-.483-.526-.775-.724-.928-.184-.143-.274-.14-.282-.14-.01 0-.099-.004-.283.14-.198.153-.46.445-.724.928-.53.971-.922 2.456-.922 4.21s.392 3.24.922 4.211c.264.483.526.775.724.928.184.144.274.14.283.14v2.094l-.208-.01c-2.056-.191-3.705-3.214-3.81-6.983l-.005-.38c0-4.071 1.801-7.372 4.023-7.372 2.22 0 4.021 3.3 4.021 7.372l-.005.38c-.108 3.895-1.865 6.993-4.017 6.993v-2.093c.01 0 .098.002.283-.14.198-.154.46-.446.724-.929.53-.971.922-2.456.922-4.21m-5.784-8.744a1.715 1.715 0 1 1-3.43 0 1.715 1.715 0 0 1 3.43 0m11.471 0a1.715 1.715 0 1 1-3.43 0 1.715 1.715 0 0 1 3.43 0"/></g><path fill="#1f1f22" d="m80.023 21.598-5.006-.53a2.35 2.35 0 0 0-1.427.28c-.947.553-.769 1.913-.82 3.01l-.755 16.356c-.05 1.096-.117 2.34.719 3.05.988.841 2.667 1.052 3.852.49 1.02-.485 1.286-1.737 1.523-2.84l3.354-15.57c.28-1.296 1.026-2.925-.019-3.742-.318-.25-.78-.436-1.421-.504m-2.876 30.075a3.111 3.111 0 1 1-6.209-.405 3.111 3.111 0 0 1 6.209.405"/></svg>
